static/assets/img/icons/theme/devices/wi-fi.svg

<svg height="24" viewBox="0 0 24 24" width="24" xmlns="http://www.w3.org/2000/svg"><g fill="none" fill-rule="evenodd"><path d="m0 0h24v24h-24z" opacity="0"/><g fill="#000"><path d="m19.366142 13.9305937-2.1041567 1.7350911c-1.2886311-1.5627317-3.1993011-2.4838666-5.2635018-2.4838666-2.05744305 0-3.96247635.915057-5.25122566 2.4690216l-2.09927636-1.7409926c1.80150978-2.1722475 4.47266687-3.4553017 7.35050202-3.4553017 2.8873071 0 5.5663207 1.2915537 7.3676585 3.4760482zm4.1798362-3.5048362-2.0986279 1.7417741c-2.3188589-2.79394555-5.7479445-4.44025887-9.4488668-4.44025887-3.69580597 0-7.12062642 1.64172735-9.43955109 4.42904797l-2.0965697-1.7442511c2.83170862-3.40368103 7.02142395-5.4120696 11.53612079-5.4120696 4.5209545 0 8.7158693 2.01399004 11.5474947 5.4257575z" fill-rule="nonzero" opacity=".3"/><path d="m15.1189503 17.3544974-2.0797061 1.7643239-1.077321.8811787-1.0287396-.8514185-2.12828749-1.7054058c.77063023-.9617199 1.93648089-1.5340848 3.19358739-1.5340848 1.2165955 0 2.3489685.5359987 3.1204668 1.4454065z"/></g></g></svg>

<svg width="24px" height="24px" viewBox="0 0 24 24" version="1.1" xmlns="http://www.w3.org/2000/svg" xmlns:xlink="http://www.w3.org/1999/xlink">
    <title>Icon For Wi-fi</title>
    <g stroke="none" stroke-width="1" fill="none" fill-rule="evenodd">
        <rect opacity="0" x="0" y="0" width="24" height="24"></rect>
        <path d="M19.366142,13.9305937 L17.2619853,15.6656848 C15.9733542,14.1029531 14.0626842,13.1818182 11.9984835,13.1818182 C9.94104045,13.1818182 8.03600715,14.0968752 6.74725784,15.6508398 L4.64798148,13.9098472 C6.44949126,11.7375997 9.12064835,10.4545455 11.9984835,10.4545455 C14.8857906,10.4545455 17.5648042,11.7460992 19.366142,13.9305937 Z M23.5459782,10.4257575 L21.4473503,12.1675316 C19.1284914,9.37358605 15.6994058,7.72727273 11.9984835,7.72727273 C8.30267753,7.72727273 4.87785708,9.36900008 2.55893241,12.1563207 L0.462362714,10.4120696 C3.29407133,7.00838857 7.48378666,5 11.9984835,5 C16.519438,5 20.7143528,7.01399004 23.5459782,10.4257575 Z" fill="#000000" fill-rule="nonzero" opacity="0.3"></path>
        <path d="M15.1189503,17.3544974 L13.0392442,19.1188213 L11.9619232,20 L10.9331836,19.1485815 L8.80489611,17.4431757 C9.57552634,16.4814558 10.741377,15.9090909 11.9984835,15.9090909 C13.215079,15.9090909 14.347452,16.4450896 15.1189503,17.3544974 Z" fill="#000000"></path>
    </g>
</svg>
